build/img/sprite/icon-calendar-empty.svg

<svg width="17" height="16" viewBox="0 0 17 16" fill="none" xmlns="http://www.w3.org/2000/svg">
<path d="M14.1201 2.0625H12.7451V1.125C12.7451 0.8125 12.4951 0.5 12.1201 0.5C11.8076 0.5 11.4951 0.75 11.4951 1.125V2.0625H4.68262V1.125C4.68262 0.8125 4.43262 0.5 4.05762 0.5C3.74512 0.5 3.43262 0.75 3.43262 1.125V2.0625H2.12012C1.30762 2.0625 0.620117 2.6875 0.620117 3.5625V14C0.620117 14.8125 1.30762 15.5 2.12012 15.5H14.1201C14.9326 15.5 15.6201 14.8125 15.6201 14V3.5625C15.6201 2.6875 14.9326 2.0625 14.1201 2.0625ZM4.12012 4C4.43262 4 4.74512 3.75 4.74512 3.375V3.25H11.5576V3.375C11.5576 3.6875 11.8076 4 12.1826 4C12.4951 4 12.8076 3.75 12.8076 3.375V3.25H14.1201C14.3076 3.25 14.4951 3.4375 14.4951 3.625V5.0625H1.80762V3.625C1.80762 3.4375 1.99512 3.25 2.18262 3.25H3.49512V3.375C3.49512 3.6875 3.74512 4 4.12012 4ZM14.4326 13.9375C14.4326 14.125 14.2451 14.3125 14.0576 14.3125H2.18262C1.99512 14.3125 1.80762 14.125 1.80762 13.9375V9.375V6.3125H14.4326V13.9375Z" fill="currentColor"/>
</svg>

<svg width="17" height="16" fill="none" xmlns="http://www.w3.org/2000/svg"><path d="M14.12 2.063h-1.375v-.938A.626.626 0 0012.12.5a.626.626 0 00-.625.625v.938H4.683v-.938A.626.626 0 004.058.5a.626.626 0 00-.625.625v.938H2.12c-.812 0-1.5.624-1.5 1.5V14c0 .813.688 1.5 1.5 1.5h12c.813 0 1.5-.688 1.5-1.5V3.562c0-.874-.687-1.5-1.5-1.5zM4.12 4c.313 0 .625-.25.625-.625V3.25h6.813v.125a.626.626 0 001.25 0V3.25h1.312c.188 0 .375.188.375.375v1.438H1.808V3.625c0-.188.187-.375.375-.375h1.312v.125c0 .313.25.625.625.625zm10.313 9.938a.403.403 0 01-.375.374H2.183a.403.403 0 01-.375-.374V6.312h12.625v7.625z" fill="currentColor"/></svg>
